src/images/icons/icon-moon.svg

<svg width="27" height="27" viewBox="0 0 27 27" fill="none" xmlns="http://www.w3.org/2000/svg">
<path d="M24.656 15.3933C23.7525 15.6333 22.8216 15.7547 21.8867 15.7546C19.04 15.7546 16.3667 14.648 14.3587 12.64C13.0401 11.3138 12.0921 9.66512 11.6093 7.85837C11.1264 6.05161 11.1255 4.14985 11.6067 2.34264C11.6668 2.11669 11.6664 1.8789 11.6056 1.65314C11.5448 1.42738 11.4257 1.22157 11.2602 1.05638C11.0947 0.891186 10.8887 0.772407 10.6629 0.711958C10.437 0.651509 10.1992 0.651515 9.97336 0.711977C7.71091 1.31489 5.64677 2.50214 3.98803 4.15464C-1.20931 9.35198 -1.20931 17.812 3.98803 23.012C5.2234 24.2542 6.69287 25.2391 8.31141 25.9097C9.92995 26.5803 11.6654 26.9232 13.4174 26.9186C15.1688 26.9236 16.9039 26.5809 18.522 25.9105C20.1401 25.2402 21.6092 24.2554 22.844 23.0133C24.4978 21.3542 25.6856 19.289 26.288 17.0253C26.3479 16.7994 26.3474 16.5618 26.2866 16.3362C26.2258 16.1106 26.1069 15.9049 25.9416 15.7397C25.7764 15.5745 25.5707 15.4555 25.3451 15.3947C25.1195 15.334 24.8819 15.3335 24.656 15.3933ZM20.96 21.128C19.972 22.1214 18.7967 22.9091 17.5023 23.4453C16.2078 23.9815 14.8198 24.2557 13.4187 24.252C12.0171 24.2555 10.6287 23.981 9.33379 23.4446C8.0389 22.9081 6.8632 22.1203 5.87469 21.1266C1.71736 16.968 1.71736 10.2 5.87469 6.04131C6.67803 5.23887 7.60549 4.57119 8.62136 4.06398C8.47266 5.98272 8.73996 7.91095 9.40499 9.71689C10.07 11.5228 11.1171 13.1639 12.4747 14.528C13.8358 15.8898 15.4764 16.9398 17.2831 17.6053C19.0897 18.2709 21.0194 18.5361 22.9387 18.3826C22.4287 19.3968 21.7608 20.3235 20.96 21.128Z" fill="#3E85F3"/>
</svg>

<svg xmlns="http://www.w3.org/2000/svg" fill="none" viewBox="0 0 27 27"><path fill="#3E85F3" d="M24.656 15.393c-.903.24-1.834.362-2.77.362-2.846 0-5.52-1.107-7.527-3.115a10.7 10.7 0 0 1-2.752-10.297A1.333 1.333 0 0 0 9.973.712a13.352 13.352 0 0 0-5.985 3.443c-5.197 5.197-5.197 13.657 0 18.857a13.25 13.25 0 0 0 9.43 3.907 13.238 13.238 0 0 0 9.426-3.906 13.342 13.342 0 0 0 3.444-5.988 1.334 1.334 0 0 0-1.632-1.632Zm-3.696 5.735a10.596 10.596 0 0 1-7.541 3.124 10.605 10.605 0 0 1-7.544-3.125c-4.158-4.159-4.158-10.927 0-15.086.803-.802 1.73-1.47 2.746-1.977a13.37 13.37 0 0 0 3.854 10.464 13.296 13.296 0 0 0 10.464 3.855 10.715 10.715 0 0 1-1.979 2.745Z"/></svg>
